X:897
M:C
L:1/8
Q:1/4=140
K:F
c>AG>A F2F:|
|:e|~f>c d/c/B/A/ ~f>cf>a|f>c f/g/a/f/ g2 d>e|1 f<af<c d<fd<c|A>cG>A F2F:|2
f/e/f/a/ f>c d/c/d/f/ d>c|A<cG>A F2F||

